X:1
T:Be Glad to Serve
T:Be Glad to Serve
T:Solomon W. Straub
T:Augusta Larned, 1893
T:Public Domain Courtesy of the Cyber Hymnal™
C:Solomon W. Straub
Z:Public Domain
Z:Courtesy of the Cyber Hymnal™
%%score ( 1 2 ) ( 3 4 )
L:1/8
Q:1/4=77
M:2/4
K:F
V:1 treble 
V:2 treble 
V:3 bass 
V:4 bass 
V:1
 [CF][CF] [CF][FA] | [EG][EG] [EG][GB] | [FA]>[FA] [FA][Fc] | [EB][FA] [EG]2 | [EG][EG] [EG][EB] | %5
w: 1.~Lit- tle hands, be|free in giv- ing;|Lit- tle hearts, be|glad to serve:|Each un- self- ish|
w: 2.~Give not on- ly|gold and trea- sure,|Give your sym- pa-|thy and care,|Love that knew not|
w: 3.~An- gels gar- ner|up in Hea- ven|Ev- ery gen- tle|word and deed;|All the joy your|
 FF F[FA] | [DG]>[DG] [DB][DG] | [CF][CE] [CF]2 |:"^Refrain" C[CA] [CF]2 | C[CA] [CF]>C | %10
w: act of liv- ing|God fails ne- ver|to ob- serve.|||
w: stint or mea- sure|Je- sus scat- tered|ev- ery- where.|Lit- tle hands,|lit- tle hands, Be|
w: lives have giv- en|To God’s lit- tle|ones in need.|~ ~ ~|~ ~ ~ ~|
 [CF]2 [FA]2 | [FA][EG] z | C[CB] [CG]2 | C[CB] [CG]>[Ed] |1 [Fc]2 [EG]2 | [FA]2 z2 :|2 %16
w: ||||||
w: free in|giv- ing!|Lit- tle hearts,|lit- tle hearts, Be|glad to|serve,|
w: ~ ~|~ ~|~ ~ ~|~ ~ ~ ~|~ ~|~|
 [Fc]2 [CE]2 || [CF]4 |] %18
w: ||
w: ||
w: glad to|serve!|
V:2
 x4 | x4 | x4 | x4 | x4 | FF F x | x4 | x4 |: C x3 | C x3/2 C/ x | x4 | x3 | C x3 | C x3 |1 x4 | %15
 x4 :|2 x4 || x4 |] %18
V:3
 [F,A,][F,A,] [F,A,][F,C] | [C,C][C,C] [C,C][E,C] | [F,C]>[F,C] [F,C][A,C] | [G,C][F,C] [C,C]2 | %4
 [C,C][C,C] [C,C][C,C] | [F,A,][F,A,] [F,A,][F,C] | [B,,B,]>[B,,B,] [B,,G,][B,,B,] | %7
 [C,A,][C,G,] [F,A,]2 |: [F,A,]F, [F,A,]2 | [F,A,]F, [F,A,]>[F,A,] | [F,A,]2 [F,C]2 | %11
 [C,C][C,C] z | [C,E,][C,G,] [C,E,]2 | [C,E,][C,G,] [C,E,]>[C,B,] |1 [C,A,]2 [C,C]2 | [F,C]2 z2 :|2 %16
 [C,A,]2 [C,B,]2 || [F,A,]4 |] %18
V:4
 x4 | x4 | x4 | x4 | x4 | x4 | x4 | x4 |: x F, x2 | x F, x2 | x4 | x3 | x4 | x4 |1 x4 | x4 :|2 %16
 x4 || x4 |] %18

